X:2190
T:Polly Oliver 
T:Johny Polly - Y graihder ny sidoor
C:Traditional
O:Isle of Man
Z:Clague collection
B:Kiaull Vannin #190 
M:3/4 
L:1/4
Q:120 
K:G 
d|g f g/e/|d/B/ G A/B/|c A F|G2 d|e f g|a/f/ d e/f/|g/f/ e/d/ B|d2 d| 
e f g|a/f/ d e/f/|g e/d/ c/B/|A2 d|g f g/e/|d/B/ G A/B/|c A F|G2|| 

